X: 5300
T: Brother's
R: jig
M: 6/8
K: Edorian
|:"Emin/B" B2e efe|B2e efe|"D/A" A2d fed|A2d fed|
"Emin/B" B2e efe|B2e "C"g2a|"Emin/B" bag "D/A" agf|1 "Emin/B" e3 e2d:|2 "Emin/B" e3 ef/g/a||
|:"Emin/B" b2b bag|"D/A" a2a agf|"Emin/B" g2g gfe|"D/A" f2f fga|
"Emin/B" b2b bag|"D/A" a2a agf|"Emin/B" gfe "D/A" fed|1 "Emin/B" e3 fga:|2 "Emin/B" e3 e2d||

